X:4
T:Marie de la tendresse - V301
M:6/8
L:1/8
K:Cm
C|C2DE2G|F2ED2F|E2DC2B,|C3-C2C|C2DE2G|F2E DEF|G2GA2F|
G3-G2G|c2cB2A|G3-G2G|F3E3|D6|C2DE3|D2CF3-|FGF EDC|E3D3|C3-C2|]
